!!!COM: Sontonga, Enoch Mankayi
!!!CDT: 1860-1904
!!!OTL: National Anthem, Zambia
!!!ENC: Davis, Matthew J.
!!Vocal Line Only
**kern
*clefG2
*k[f#]
*G:
*M4/4
==:!|1
8g
8g
8g
8a
4b
4b
=2
4a
4a
2g
=3
8b
8b
8b
8b
4cc
4cc
=4
4b
4b
2a
=5
8g
8g
8g
8a
4b
4b
=6
8a
8b
4cc
2b
=7
2a
2g
=8
8e
8g
4a
2g
=9
2a
2g
=10
8f#
8g
4a
2g
==:|!11
!Chorus
4g
8f#
8e
[2d
=12
1d]
=13
4g
8f#
8e
[2d
=14
2.d]
4d
=15
4g
8a
8b
2e
=16
4cc
8b
8a
2g
=17
8f#
8g
4a
2g
=18
2a
2g
=19
8f#
8g
4a
2g
=20
2a
2g
=21
8f#
8g
4a
[2g
=22
2.]
4r
==|!
*-
